X:234
T:Richard Coer de Lion. VWMLa.234
%%VWML:Anon2-3049-p153-0
F:http://www.vwml.org/record/Anon2/3049/p153
S:Anon. MS, late 18thC, Vaughan Williams Mem. Library
N:Sounds better without the key change. Check MS. PJH.
O:England;Yorkshire
Z:vmp/efdss.Simon Wilson. Reviewed PJH 2008.
M:2/4
L:1/8
Q:1/4=140
K:A
A>cAE|DCB,A,|BcdB|AGFE|\
A>cAE|DCB,A,|d(e/f/) eG|A2A,2:|
K:C
e>fed|!turn!cBA^G|AED^G|AECA,|\
e>fed|cBA^G|AF/E/ D^G|A2A,2:|
